markets/TRX.svg

<svg width="42" height="42" viewBox="0 0 42 42" fill="none" xmlns="http://www.w3.org/2000/svg">
<g clip-path="url(#clip0_7277_55585)">
<path d="M21 42C32.598 42 42 32.598 42 21C42 9.40202 32.598 0 21 0C9.40202 0 0 9.40202 0 21C0 32.598 9.40202 42 21 42Z" fill="black"/>
<path d="M32.4778 16.0991C31.4291 15.355 30.3069 14.5609 29.2097 13.7734C29.1847 13.755 29.1611 13.7366 29.1309 13.7183C29.0024 13.6127 28.8568 13.5297 28.7004 13.4728L28.6873 13.4663C25.7513 12.7458 22.8162 12.0222 19.8817 11.2954L12.0277 9.35684L11.8217 9.30171C11.5854 9.23477 11.3124 9.15996 11.0211 9.19671C10.9413 9.20894 10.8651 9.23851 10.7979 9.28334L10.7244 9.34502C10.6324 9.4394 10.5621 9.55272 10.5184 9.67709L10.5 9.72696V10.0091L10.5131 10.0525C12.1669 14.7578 13.8653 19.5313 15.5033 24.15C16.7646 27.7069 18.0758 31.3898 19.3541 35.007C19.4329 35.2525 19.6573 35.4139 19.9369 35.4375H19.9973C20.1194 35.4407 20.2402 35.4109 20.3468 35.3513C20.4535 35.2917 20.5422 35.2045 20.6036 35.0989L25.4074 27.9943C26.5768 26.2658 27.7476 24.532 28.9183 22.8034L30.3555 20.6745C31.143 19.5064 31.9567 18.3002 32.7639 17.1255L32.8059 17.0651V16.9903C32.8243 16.7751 32.8296 16.3328 32.4778 16.0978V16.0991ZM26.8498 18.6887C25.7211 19.2846 24.57 19.9002 23.4111 20.5092L25.4376 18.3068C26.2802 17.3841 27.1596 16.4299 28.0206 15.4954L28.0389 15.477C28.1111 15.3786 28.203 15.2867 28.3001 15.1883C28.3658 15.1213 28.4392 15.0531 28.5062 14.973C28.9551 15.288 29.4092 15.607 29.8462 15.9207C30.1612 16.1477 30.4828 16.3761 30.8109 16.6031C29.486 17.2896 28.1656 17.9848 26.8498 18.6887V18.6887ZM23.9518 18.3934C23.0843 19.3463 22.1865 20.3241 21.2953 21.2901C19.5657 19.1619 17.831 17.0378 16.0913 14.9179L13.7563 12.0698L13.7511 12.0632C13.5752 11.8611 13.4046 11.6393 13.2352 11.4306C13.1263 11.2888 13.0108 11.1536 12.8953 11.0119C13.5988 11.1956 14.3089 11.3689 15.0058 11.5343C15.6187 11.6826 16.2553 11.8361 16.8801 11.9963L27.4391 14.5976C26.2684 15.8655 25.0911 17.1505 23.9518 18.3934V18.3934ZM20.9002 30.3818C20.9672 29.736 21.0407 29.0719 21.1011 28.4196C21.1562 27.8959 21.21 27.3617 21.2651 26.8512C21.3491 26.0322 21.441 25.1843 21.5145 24.3535L21.5316 24.2065C21.5919 23.6762 21.6523 23.1302 21.6891 22.5816C21.7597 22.5417 21.8329 22.5066 21.9082 22.4766C21.9988 22.4346 22.0894 22.3978 22.1799 22.3427C23.5808 21.5961 24.9839 20.8537 26.3891 20.1154C27.7909 19.3778 29.2281 18.6139 30.6534 17.8579C29.3601 19.7574 28.0721 21.6605 26.7894 23.5673C25.704 25.1712 24.5884 26.8262 23.478 28.4563C23.0423 29.1087 22.5868 29.7728 22.1563 30.412C21.6707 31.126 21.1732 31.857 20.6889 32.5907C20.7493 31.8518 20.8215 31.1076 20.9002 30.3818V30.3818ZM12.4478 12.4635C12.369 12.2417 12.2824 12.0146 12.2102 11.7994C13.8482 13.8049 15.4967 15.8222 17.1045 17.7778C17.9353 18.7924 18.7661 19.8017 19.5969 20.8228C19.761 21.0132 19.9251 21.2166 20.0826 21.4135C20.2886 21.6655 20.4947 21.9306 20.7191 22.1826C20.6456 22.8152 20.5853 23.4557 20.5183 24.07C20.4763 24.5005 20.4343 24.9323 20.3857 25.3693V25.3746C20.3674 25.6502 20.3306 25.9285 20.3004 26.1988L20.1613 27.4234L20.1547 27.4654C20.0458 28.7083 19.9119 29.9631 19.7846 31.1811C19.7308 31.6851 19.6823 32.2022 19.6271 32.7193C19.5969 32.6275 19.5615 32.5343 19.53 32.4477C19.4375 32.197 19.3487 31.9449 19.2636 31.6917L18.6139 29.8647L12.4464 12.4635" fill="white"/>
</g>
<defs>
<clipPath id="clip0_7277_55585">
<rect width="42" height="42" fill="white"/>
</clipPath>
</defs>
</svg>

<svg xmlns="http://www.w3.org/2000/svg" width="42" height="42" fill="none"><g clip-path="url(#a)"><path fill="#000" d="M21 42c11.598 0 21-9.402 21-21S32.598 0 21 0 0 9.402 0 21s9.402 21 21 21Z"/><path fill="#fff" d="M32.478 16.1c-1.049-.745-2.171-1.54-3.268-2.327-.025-.018-.049-.036-.08-.055a1.47 1.47 0 0 0-.43-.245l-.013-.007c-2.936-.72-5.87-1.444-8.805-2.17l-7.854-1.94-.206-.054c-.237-.067-.51-.142-.8-.105a.553.553 0 0 0-.224.086l-.074.062a.906.906 0 0 0-.206.332l-.018.05v.282l.013.043c1.654 4.706 3.352 9.48 4.99 14.098 1.262 3.557 2.573 7.24 3.851 10.857.079.245.303.407.583.43h.06a.68.68 0 0 0 .607-.338l4.803-7.105c1.17-1.728 2.34-3.462 3.511-5.19l1.438-2.13a486.857 486.857 0 0 1 2.408-3.549l.042-.06v-.075c.018-.215.024-.657-.328-.892v.001Zm-5.628 2.589c-1.129.596-2.28 1.211-3.439 1.82l2.027-2.202c.842-.923 1.722-1.877 2.583-2.812l.018-.018c.072-.098.164-.19.261-.289.066-.067.14-.135.206-.215.45.315.903.634 1.34.948.315.227.637.455.965.682a340.198 340.198 0 0 0-3.961 2.086Zm-2.898-.296a597.85 597.85 0 0 1-2.657 2.897c-1.73-2.128-3.464-4.252-5.204-6.372l-2.335-2.848-.005-.007c-.176-.202-.346-.424-.516-.632-.109-.142-.224-.277-.34-.42.704.185 1.414.358 2.11.523.614.149 1.25.302 1.875.462l10.56 2.602c-1.172 1.268-2.349 2.553-3.488 3.795ZM20.9 30.382c.067-.646.14-1.31.201-1.962.055-.524.109-1.058.164-1.569.084-.819.176-1.667.25-2.497l.017-.148c.06-.53.12-1.076.157-1.624.07-.04.144-.075.22-.105.09-.042.18-.08.27-.134 1.402-.747 2.805-1.49 4.21-2.228 1.402-.737 2.84-1.501 4.264-2.257-1.293 1.9-2.58 3.802-3.864 5.71-1.085 1.603-2.2 3.258-3.311 4.888-.436.653-.891 1.317-1.322 1.956-.485.714-.983 1.445-1.467 2.179.06-.74.133-1.483.211-2.21Zm-8.452-17.919c-.079-.221-.166-.448-.238-.664 1.638 2.006 3.287 4.023 4.895 5.979.83 1.014 1.661 2.024 2.492 3.045.164.19.328.394.486.59.206.253.412.518.636.77-.073.632-.134 1.273-.2 1.887-.043.43-.085.862-.133 1.3v.005c-.019.275-.055.553-.086.824l-.139 1.224-.006.042c-.11 1.243-.243 2.498-.37 3.716-.054.504-.103 1.021-.158 1.538-.03-.092-.066-.185-.097-.271-.093-.251-.181-.503-.266-.756l-.65-1.827-6.168-17.401"/></g><defs><clipPath id="a"><path fill="#fff" d="M0 0h42v42H0z"/></clipPath></defs></svg>
